X: 12926
T: Fiddler Of Dooney, The
R: jig
M: 6/8
K: Gmajor
~G3 GBd|cAG FEF|DEF GAB|cAB cBA|
~G3 GBd|cAG FEF|DEF GBd|cAd G2z:|
~g3 bag|fed cBA|A^ce abg|gaf fed|
g2g bag|fed cBA|GAF GBd|cAd G2z:|

